X:66
T:066
M:4/4
L:1/8
R:Reel
Z:Grk-066
K:C
G3A GE~E2|CE~E2 GAcd|eddc AGAc|dfec dcAG|
EG~G2 cGAG|EDCD EGcd|eddc AcGE|1FAGF ECCF:|2FAGF ECC^f||
g2^fg ec~c2|eg^fg ec~c2|Addc defg|afge fedf|
|1ec~c2 g3e|cdec d2cd|eddc AcGE|FEDF ECC^f|
:|2eccB c3d|AF~F2 Ac~c2|eddc AcGE|FAGF ECCF||





%wordsfont Times-Roman 13.0
%vocalfont Times-Roman 13.0
